assets/features/payment-flow/Bank of Ayudhya (Krungsri-กรุงศรี).svg

<svg width="200" height="200" viewBox="0 0 200 200" fill="none" xmlns="http://www.w3.org/2000/svg">
<rect width="200" height="200" rx="40" fill="#6F5F5E"/>
<path d="M84.8823 108.262C81.7473 105.033 77.9701 99.8012 75.6283 92.2091C75.6283 92.2091 75.5338 91.9258 75.4016 91.9258C75.2694 91.9258 75.1183 92.2468 75.1183 92.2468C69.9625 108.961 57.5545 115.533 53.324 116.968C53.0974 117.044 53.0974 117.233 53.0974 117.327C55.2504 123.22 58.5177 128.564 62.6159 133.154C62.7103 133.21 62.8425 133.286 63.0692 133.154C76.3648 125.562 83.9569 110.755 84.9579 108.678C85.0523 108.489 84.9579 108.356 84.8823 108.262Z" fill="#FFD400"/>
<path d="M115.043 108.262C115.093 108.262 115.093 108.262 115.043 108.262C118.178 105.033 121.955 99.8012 124.335 92.2091C124.335 92.2091 124.429 91.9258 124.561 91.9258C124.713 91.9258 124.845 92.2468 124.845 92.2468C130.001 108.961 142.427 115.533 146.658 116.968C146.885 117.044 146.885 117.233 146.885 117.327C144.713 123.22 141.445 128.564 137.366 133.154C137.272 133.21 137.121 133.286 136.894 133.154C123.56 125.562 116.006 110.755 115.005 108.678C114.911 108.489 115.043 108.356 115.043 108.262Z" fill="#FFD400"/>
<path d="M124.071 143.503C105.26 125.203 100.274 92.4735 100.274 92.4735C100.274 92.4735 100.199 91.9258 99.9533 91.9258C99.7267 91.9258 99.6323 92.4735 99.6323 92.4735C99.6323 92.4735 94.7219 125.203 75.8549 143.503C75.8549 143.503 75.6661 143.692 75.8549 143.824C82.8994 147.696 90.9825 149.962 99.5945 150H99.9155H100.237C108.849 149.962 116.932 147.696 123.976 143.824C124.241 143.692 124.071 143.503 124.071 143.503Z" fill="#FFD400"/>
<path d="M126.091 57.3267C125.808 57.1756 125.808 57.5533 125.808 57.5533C125.865 63.4457 126.639 96.0239 149.359 105.958C149.585 106.052 149.642 105.92 149.642 105.863C149.869 103.937 150.001 102.011 150.001 100.028C149.963 81.8972 140.388 66.1086 126.091 57.3267Z" fill="#FFD400"/>
<path d="M73.9284 57.3267C74.1928 57.1756 74.1928 57.5533 74.1928 57.5533C74.155 63.4457 73.3807 96.0239 50.6421 105.958C50.4721 106.052 50.3777 105.92 50.3777 105.863C50.1511 103.937 50 102.011 50 100.028C50 81.8972 59.5751 66.1086 73.9284 57.3267Z" fill="#FFD400"/>
<path d="M123.051 55.628C116.573 52.2096 109.245 50.2266 101.426 50C101.2 50 101.256 50.2833 101.256 50.2833C101.256 60.2173 102.862 83.4658 110.586 99.1599C110.643 99.3299 110.775 99.2355 110.869 99.2355L110.907 99.1977C111.7 98.3667 123.693 85.1655 123.239 55.9868C123.239 55.7602 123.107 55.628 123.051 55.628Z" fill="#FFD400"/>
<path d="M76.9125 55.628C83.4093 52.2096 90.7559 50.2266 98.5369 50C98.7635 50 98.7257 50.2833 98.7257 50.2833C98.7257 60.2173 97.1015 83.4658 89.3395 99.1599C89.2828 99.3299 89.1128 99.2355 89.1128 99.2355C89.0562 99.2355 89.0562 99.1977 89.0562 99.1977C88.2818 98.3667 76.2704 85.1655 76.7237 55.9868C76.7237 55.7602 76.8181 55.628 76.9125 55.628Z" fill="#FFD400"/>
</svg>

<svg xmlns="http://www.w3.org/2000/svg" width="200" height="200" fill="none" viewBox="0 0 200 200"><rect width="200" height="200" fill="#6f5f5e" rx="40"/><path fill="#ffd400" d="M84.882 108.262c-3.135-3.229-6.912-8.46-9.254-16.053 0 0-.094-.283-.226-.283-.133 0-.284.32-.284.32-5.155 16.715-17.563 23.287-21.794 24.722-.227.076-.227.265-.227.359 2.153 5.893 5.42 11.237 9.519 15.827.094.056.227.132.453 0 13.296-7.592 20.888-22.399 21.889-24.476.094-.189 0-.322-.076-.416m30.161 0q.075 0 0 0c3.135-3.229 6.912-8.46 9.292-16.053 0 0 .094-.283.226-.283.152 0 .284.32.284.32 5.156 16.715 17.582 23.287 21.813 24.722.227.076.227.265.227.359-2.172 5.893-5.44 11.237-9.519 15.827-.094.056-.245.132-.472 0-13.334-7.592-20.888-22.399-21.889-24.476-.094-.189.038-.322.038-.416m9.028 35.241c-18.811-18.3-23.797-51.03-23.797-51.03s-.075-.547-.32-.547c-.227 0-.322.547-.322.547s-4.91 32.73-23.777 51.03c0 0-.189.189 0 .321 7.044 3.872 15.127 6.138 23.74 6.176h.642c8.612-.038 16.695-2.304 23.739-6.176.265-.132.095-.321.095-.321m2.02-86.176c-.283-.151-.283.226-.283.226.057 5.893.831 38.47 23.551 48.405.226.094.283-.038.283-.095.227-1.926.359-3.852.359-5.835-.038-18.13-9.613-33.92-23.91-42.701m-52.163 0c.265-.151.265.226.265.226-.038 5.893-.812 38.47-23.55 48.405-.17.094-.265-.038-.265-.095-.227-1.926-.378-3.852-.378-5.835 0-18.13 9.575-33.92 23.928-42.701m49.123-1.699c-6.478-3.418-13.806-5.401-21.625-5.628-.226 0-.17.283-.17.283 0 9.934 1.606 33.183 9.33 48.877.057.17.189.076.283.076l.038-.038c.793-.831 12.786-14.032 12.332-43.211 0-.227-.132-.359-.188-.359m-46.138 0C83.408 52.21 90.756 50.227 98.536 50c.226 0 .189.283.189.283 0 9.934-1.624 33.183-9.386 48.877-.057.17-.227.076-.227.076-.057 0-.057-.038-.057-.038-.774-.831-12.786-14.032-12.332-43.211 0-.227.094-.359.188-.359"/></svg>
